X: 4211
T: Bluebells Are Blooming, The
R: jig
M: 6/8
K: Gmajor
|:(3efg e dBG|DFA GBd|(3efg e def|gab agf|
fge fed|edB c3|~B2B GAB|1 AGF GBd:|2 AGF G2D||
|:~B2B BAG|AGF G2D|GBd efg|dBG AFD|
~B2B BAG|AGF GBd|(3efg e dBA|AGF G3:|
|:GBd GBd|gge dBA|GBd GBd|AFD AFD|
GBd GBd|gge dBA|B2B dcA|AGF G2D:|

